; G-Code generated by Simplify3D(R) Version 4.0.1
; May 12, 2018 at 3:04:39 PM
; Settings Summary
;   processName,1
;   applyToModels,крепеж_дисплея_v2.1
;   profileName,05 (modified)
;   profileVersion,2018-01-30 20:06:37
;   baseProfile,Default (modified)
;   printMaterial,ABS
;   printQuality,Medium
;   printExtruders,
;   extruderName,Primary Extruder
;   extruderToolheadNumber,0
;   extruderDiameter,0.5
;   extruderAutoWidth,1
;   extruderWidth,0.6
;   extrusionMultiplier,1
;   extruderUseRetract,1
;   extruderRetractionDistance,2
;   extruderExtraRestartDistance,0
;   extruderRetractionZLift,0
;   extruderRetractionSpeed,1200
;   extruderUseCoasting,0
;   extruderCoastingDistance,0.2
;   extruderUseWipe,0
;   extruderWipeDistance,5
;   primaryExtruder,0
;   layerHeight,0.3
;   topSolidLayers,3
;   bottomSolidLayers,2
;   perimeterOutlines,3
;   printPerimetersInsideOut,0
;   startPointOption,2
;   startPointOriginX,0
;   startPointOriginY,0
;   sequentialIslands,0
;   spiralVaseMode,0
;   firstLayerHeightPercentage,100
;   firstLayerWidthPercentage,100
;   firstLayerUnderspeed,0.5
;   useRaft,0
;   raftExtruder,0
;   raftTopLayers,3
;   raftBaseLayers,2
;   raftOffset,3
;   raftSeparationDistance,0.14
;   raftTopInfill,100
;   aboveRaftSpeedMultiplier,0.3
;   useSkirt,1
;   skirtExtruder,0
;   skirtLayers,1
;   skirtOutlines,5
;   skirtOffset,0
;   usePrimePillar,0
;   primePillarExtruder,999
;   primePillarWidth,12
;   primePillarLocation,7
;   primePillarSpeedMultiplier,1
;   useOozeShield,0
;   oozeShieldExtruder,999
;   oozeShieldOffset,2
;   oozeShieldOutlines,1
;   oozeShieldSidewallShape,1
;   oozeShieldSidewallAngle,30
;   oozeShieldSpeedMultiplier,1
;   infillExtruder,0
;   internalInfillPattern,Rectilinear
;   externalInfillPattern,Rectilinear
;   infillPercentage,21
;   outlineOverlapPercentage,15
;   infillExtrusionWidthPercentage,80
;   minInfillLength,10
;   infillLayerInterval,1
;   internalInfillAngles,0,120,-120
;   overlapInternalInfillAngles,0
;   externalInfillAngles,45,-45
;   generateSupport,1
;   supportExtruder,0
;   supportInfillPercentage,20
;   supportExtraInflation,0
;   supportBaseLayers,0
;   denseSupportExtruder,0
;   denseSupportLayers,0
;   denseSupportInfillPercentage,60
;   supportLayerInterval,1
;   supportHorizontalPartOffset,0.3
;   supportUpperSeparationLayers,1
;   supportLowerSeparationLayers,1
;   supportType,0
;   supportGridSpacing,4
;   maxOverhangAngle,70
;   supportAngles,45
;   temperatureName,Primary Extruder,bed
;   temperatureNumber,0,1
;   temperatureSetpointCount,1,1
;   temperatureSetpointLayers,1,1
;   temperatureSetpointTemperatures,245,90
;   temperatureStabilizeAtStartup,1,1
;   temperatureHeatedBed,0,1
;   temperatureRelayBetweenLayers,0,0
;   temperatureRelayBetweenLoops,0,0
;   fanLayers,1,2
;   fanSpeeds,0,100
;   blipFanToFullPower,0
;   adjustSpeedForCooling,1
;   minSpeedLayerTime,15
;   minCoolingSpeedSlowdown,20
;   increaseFanForCooling,0
;   minFanLayerTime,45
;   maxCoolingFanSpeed,100
;   increaseFanForBridging,0
;   bridgingFanSpeed,100
;   use5D,1
;   relativeEdistances,0
;   allowEaxisZeroing,1
;   independentExtruderAxes,0
;   includeM10123,0
;   stickySupport,1
;   applyToolheadOffsets,0
;   gcodeXoffset,0
;   gcodeYoffset,0
;   gcodeZoffset,0.1
;   overrideMachineDefinition,0
;   machineTypeOverride,0
;   strokeXoverride,200
;   strokeYoverride,200
;   strokeZoverride,200
;   originOffsetXoverride,0
;   originOffsetYoverride,0
;   originOffsetZoverride,0
;   homeXdirOverride,-1
;   homeYdirOverride,-1
;   homeZdirOverride,-1
;   flipXoverride,1
;   flipYoverride,-1
;   flipZoverride,1
;   toolheadOffsets,0,0|0,0|0,0|0,0|0,0|0,0
;   overrideFirmwareConfiguration,0
;   firmwareTypeOverride,RepRap (Marlin/Repetier/Sprinter)
;   GPXconfigOverride,r2
;   baudRateOverride,115200
;   overridePrinterModels,0
;   printerModelsOverride
;   startingGcode,G28 ; home all axes
;   layerChangeGcode,
;   retractionGcode,
;   toolChangeGcode,
;   endingGcode,M104 S0 ; turn off extruder,M140 S0 ; turn off bed,M84 ; disable motors
;   exportFileFormat,gcode
;   celebration,0
;   celebrationSong,Random Song
;   postProcessing,
;   defaultSpeed,3000
;   outlineUnderspeed,0.5
;   solidInfillUnderspeed,0.8
;   supportUnderspeed,0.8
;   rapidXYspeed,7200
;   rapidZspeed,1002
;   minBridgingArea,50
;   bridgingExtraInflation,0
;   bridgingExtrusionMultiplier,1
;   bridgingSpeedMultiplier,1
;   useFixedBridgingAngle,0
;   fixedBridgingAngle,0
;   applyBridgingToPerimeters,0
;   filamentDiameters,1.75|1.75|1.75|1.75|1.75|1.75
;   filamentPricesPerKg,46|46|46|46|46|46
;   filamentDensities,1.25|1.25|1.25|1.25|1.25|1.25
;   useMinPrintHeight,0
;   minPrintHeight,0
;   useMaxPrintHeight,0
;   maxPrintHeight,1.8
;   useDiaphragm,0
;   diaphragmLayerInterval,20
;   robustSlicing,1
;   mergeAllIntoSolid,0
;   onlyRetractWhenCrossingOutline,1
;   retractBetweenLayers,1
;   useRetractionMinTravel,0
;   retractionMinTravel,3
;   retractWhileWiping,0
;   onlyWipeOutlines,1
;   avoidCrossingOutline,0
;   maxMovementDetourFactor,3
;   toolChangeRetractionDistance,12
;   toolChangeExtraRestartDistance,-0.5
;   toolChangeRetractionSpeed,600
;   externalThinWallType,0
;   internalThinWallType,2
;   thinWallAllowedOverlapPercentage,10
;   singleExtrusionMinLength,1
;   singleExtrusionMinPrintingWidthPercentage,50
;   singleExtrusionMaxPrintingWidthPercentage,200
;   singleExtrusionEndpointExtension,0.2
;   horizontalSizeCompensation,0
G90
M82
M106 S0
M140 S90
M190 S90
M104 S245 
M109 S245 
G28 ; home all axes
G92 E0
G1 E-2.0000 F1200
G1 Z0.400 F1002
; process 1
; layer 1, Z = 0.300
T0
; tool H0.300 W0.600
; skirt
G1 X66.754 Y56.190 F7200
G1 E0.0000 F360
G92 E0
G1 X68.336 Y54.609 E0.1674 F1500
G1 X72.052 Y54.609 E0.4455
G1 X72.261 Y54.400 E0.4677
G1 X78.978 Y54.400 E0.9703
G1 X79.128 Y54.550 E0.9862
G1 X85.873 Y54.550 E1.4909
G1 X85.981 Y54.554 E1.4990
G1 X86.349 Y54.584 E1.5266
G1 X86.660 Y54.646 E1.5504
G1 X87.309 Y54.857 E1.6015
G1 X87.686 Y55.049 E1.6331
G1 X88.279 Y55.478 E1.6879
G1 X88.579 Y55.777 E1.7196
G1 X89.014 Y56.372 E1.7747
G1 X89.208 Y56.750 E1.8066
G1 X89.438 Y57.453 E1.8619
G1 X89.506 Y57.869 E1.8935
G1 X89.522 Y61.045 E2.1311
G1 X110.279 Y61.056 E3.6845
G1 X110.590 Y61.092 E3.7079
G1 X111.050 Y61.201 E3.7433
G1 X111.349 Y61.310 E3.7671
G1 X111.960 Y61.619 E3.8183
G1 X112.305 Y61.868 E3.8501
G1 X112.828 Y62.387 E3.9053
G1 X113.079 Y62.730 E3.9371
G1 X113.416 Y63.386 E3.9923
G1 X113.549 Y63.790 E4.0242
G1 X113.651 Y64.416 E4.0716
G1 X113.668 Y64.632 E4.0878
G1 X113.668 Y65.291 E4.1371
G1 X114.418 Y65.697 E4.2009
G1 X114.507 Y65.750 E4.2087
G1 X116.618 Y67.113 E4.3967
G1 X116.703 Y67.172 E4.4045
G1 X117.937 Y68.111 E4.5205
G1 X126.412 Y68.111 E5.1548
G1 X126.622 Y68.127 E5.1706
G1 X127.240 Y68.225 E5.2174
G1 X127.641 Y68.354 E5.2489
G1 X128.298 Y68.686 E5.3040
G1 X128.643 Y68.934 E5.3358
G1 X129.167 Y69.454 E5.3910
G1 X129.418 Y69.797 E5.4228
G1 X129.755 Y70.453 E5.4780
G1 X129.888 Y70.857 E5.5098
G1 X129.989 Y71.483 E5.5573
G1 X130.006 Y71.699 E5.5735
G1 X129.995 Y118.614 E9.0844
G1 X129.959 Y118.838 E9.1014
G1 X129.978 Y118.857 E9.1034
G1 X129.978 Y125.574 E9.6060
G1 X129.227 Y126.325 E9.6855
G1 X129.227 Y129.556 E9.9273
G1 X127.646 Y131.138 E10.0947
G1 X126.082 Y131.138 E10.2118
G1 X126.082 Y132.230 E10.2934
G1 X124.500 Y133.811 E10.4608
G1 X123.052 Y133.811 E10.5692
G1 X121.749 Y135.114 E10.7071
G1 X116.136 Y135.114 E11.1271
G1 X115.964 Y135.202 E11.1416
G1 X115.560 Y135.333 E11.1734
G1 X114.936 Y135.433 E11.2207
G1 X114.722 Y135.450 E11.2367
G1 X105.473 Y135.450 E11.9289
G1 X105.263 Y135.434 E11.9447
G1 X104.697 Y135.345 E11.9875
G1 X104.394 Y135.260 E12.0110
G1 X103.956 Y135.080 E12.0465
G1 X103.678 Y134.926 E12.0703
G1 X103.166 Y134.556 E12.1176
G1 X102.931 Y134.341 E12.1414
G1 X102.621 Y133.981 E12.1770
G1 X102.443 Y133.717 E12.2008
G1 X102.155 Y133.155 E12.2480
G1 X102.043 Y132.857 E12.2719
G1 X102.001 Y132.685 E12.2851
G1 X61.496 Y132.685 E15.3163
G1 X59.914 Y131.104 E15.4837
G1 X59.914 Y65.093 E20.4237
G1 X61.326 Y63.887 E20.5626
G1 X61.326 Y62.155 E20.6922
G1 X62.908 Y60.573 E20.8596
G1 X64.672 Y60.573 E20.9916
G1 X64.672 Y59.202 E21.0942
G1 X66.253 Y57.620 E21.2616
G1 X66.754 Y57.620 E21.2991
G1 X66.754 Y56.190 E21.4061
G1 X72.480 Y68.457 F7200
G92 E0
G1 X72.480 Y69.550 E0.0818 F1500
G1 X75.008 Y69.550 E0.2710
G1 X75.160 Y69.538 E0.2823
G1 X75.205 Y69.527 E0.2858
G1 X75.247 Y69.510 E0.2892
G1 X75.286 Y69.486 E0.2926
G1 X75.321 Y69.456 E0.2961
G1 X75.349 Y69.423 E0.2993
G1 X75.375 Y69.381 E0.3030
G1 X75.392 Y69.340 E0.3063
G1 X75.403 Y69.296 E0.3097
G1 X75.414 Y69.144 E0.3211
G1 X75.414 Y68.803 E0.3466
G1 X72.826 Y68.803 E0.5403
G1 X72.480 Y68.457 E0.5769
G1 X73.075 Y68.203 F7200
G92 E0
G1 X71.880 Y67.009 E0.1264 F1500
G1 X71.880 Y70.150 E0.3615
G1 X75.032 Y70.150 E0.5973
G1 X75.254 Y70.132 E0.6140
G1 X75.391 Y70.100 E0.6245
G1 X75.520 Y70.046 E0.6350
G1 X75.640 Y69.973 E0.6455
G1 X75.746 Y69.882 E0.6560
G1 X75.836 Y69.777 E0.6663
G1 X75.911 Y69.655 E0.6770
G1 X75.964 Y69.526 E0.6875
G1 X75.997 Y69.390 E0.6979
G1 X76.014 Y69.168 E0.7146
G1 X76.014 Y68.203 E0.7868
G1 X73.075 Y68.203 E1.0068
G1 X71.844 Y66.929 F7200
G92 E0
G1 X71.844 Y66.900 E0.0022 F1500
G1 X71.815 Y66.900 E0.0044
G1 X71.844 Y66.929 E0.0074
G1 X65.272 Y61.173 F7200
G92 E0
G1 X65.272 Y59.450 E0.1289 F1500
G1 X66.502 Y58.220 E0.2591
G1 X67.354 Y58.220 E0.3229
G1 X67.354 Y56.439 E0.4562
G1 X68.584 Y55.209 E0.5864
G1 X72.301 Y55.209 E0.8645
G1 X72.510 Y55.000 E0.8866
G1 X78.730 Y55.000 E1.3521
G1 X78.891 Y55.161 E1.3692
G1 X78.989 Y55.153 E1.3765
G1 X79.073 Y55.150 E1.3828
G1 X85.861 Y55.150 E1.8908
G1 X85.945 Y55.153 E1.8971
G1 X86.266 Y55.179 E1.9212
G1 X86.508 Y55.227 E1.9396
G1 X87.079 Y55.413 E1.9846
G1 X87.372 Y55.562 E2.0092
G1 X87.889 Y55.937 E2.0570
G1 X88.122 Y56.169 E2.0816
G1 X88.502 Y56.687 E2.1297
G1 X88.653 Y56.982 E2.1545
G1 X88.854 Y57.595 E2.2028
G1 X88.906 Y57.919 E2.2273
G1 X88.925 Y61.645 E2.5061
G1 X110.244 Y61.656 E4.1015
G1 X110.486 Y61.684 E4.1197
G1 X110.877 Y61.777 E4.1498
G1 X111.110 Y61.862 E4.1684
G1 X111.647 Y62.133 E4.2134
G1 X111.915 Y62.327 E4.2382
G1 X112.372 Y62.780 E4.2863
G1 X112.567 Y63.047 E4.3110
G1 X112.861 Y63.619 E4.3592
G1 X112.965 Y63.933 E4.3839
G1 X113.055 Y64.488 E4.4260
G1 X113.068 Y64.656 E4.4386
G1 X113.068 Y65.648 E4.5129
G1 X114.122 Y66.219 E4.6026
G1 X114.191 Y66.260 E4.6086
G1 X116.282 Y67.611 E4.7949
G1 X116.349 Y67.657 E4.8009
G1 X117.734 Y68.711 E4.9312
G1 X126.389 Y68.711 E5.5789
G1 X126.552 Y68.724 E5.5912
G1 X127.101 Y68.810 E5.6327
G1 X127.413 Y68.911 E5.6572
G1 X127.986 Y69.200 E5.7053
G1 X128.254 Y69.393 E5.7300
G1 X128.710 Y69.847 E5.7782
G1 X128.906 Y70.113 E5.8029
G1 X129.200 Y70.686 E5.8510
G1 X129.303 Y71.000 E5.8758
G1 X129.393 Y71.555 E5.9179
G1 X129.406 Y71.723 E5.9305
G1 X129.395 Y118.567 E9.4360
G1 X129.344 Y118.889 E9.4605
G1 X129.300 Y119.027 E9.4713
G1 X129.378 Y119.106 E9.4796
G1 X129.378 Y125.325 E9.9451
G1 X128.627 Y126.076 E10.0246
G1 X128.627 Y129.308 E10.2664
G1 X127.397 Y130.538 E10.3966
G1 X125.482 Y130.538 E10.5399
G1 X125.482 Y131.981 E10.6479
G1 X124.251 Y133.211 E10.7781
G1 X122.731 Y133.211 E10.8919
G1 X122.731 Y133.283 E10.8973
G1 X121.501 Y134.514 E11.0275
G1 X115.992 Y134.514 E11.4398
G1 X115.733 Y134.646 E11.4615
G1 X115.419 Y134.748 E11.4863
G1 X114.864 Y134.837 E11.5282
G1 X114.699 Y134.850 E11.5407
G1 X105.496 Y134.850 E12.2294
G1 X105.333 Y134.837 E12.2416
G1 X104.825 Y134.757 E12.2801
G1 X104.590 Y134.691 E12.2984
G1 X104.217 Y134.538 E12.3286
G1 X104.000 Y134.418 E12.3471
G1 X103.545 Y134.090 E12.3890
G1 X103.363 Y133.923 E12.4076
G1 X103.099 Y133.616 E12.4379
G1 X102.961 Y133.411 E12.4564
G1 X102.704 Y132.912 E12.4983
G1 X102.618 Y132.680 E12.5169
G1 X102.524 Y132.297 E12.5464
G1 X102.496 Y132.085 E12.5624
G1 X61.745 Y132.085 E15.6120
G1 X60.514 Y130.855 E15.7422
G1 X60.514 Y65.369 E20.6429
G1 X61.926 Y64.163 E20.7819
G1 X61.926 Y62.403 E20.9136
G1 X63.156 Y61.173 E21.0438
G1 X65.272 Y61.173 E21.2021
G1 X65.872 Y61.773 F7200
G92 E0
G1 X65.872 Y59.699 E0.1552 F1500
G1 X66.750 Y58.820 E0.2482
G1 X67.954 Y58.820 E0.3383
G1 X67.954 Y56.687 E0.4979
G1 X68.833 Y55.809 E0.5909
G1 X72.549 Y55.809 E0.8690
G1 X72.758 Y55.600 E0.8911
G1 X78.481 Y55.600 E1.3194
G1 X78.671 Y55.790 E1.3395
G1 X78.749 Y55.774 E1.3455
G1 X79.025 Y55.752 E1.3662
G1 X79.085 Y55.750 E1.3706
G1 X85.849 Y55.750 E1.8769
G1 X85.909 Y55.752 E1.8814
G1 X86.183 Y55.774 E1.9019
G1 X86.356 Y55.809 E1.9151
G1 X86.849 Y55.969 E1.9539
G1 X87.058 Y56.075 E1.9715
G1 X87.499 Y56.395 E2.0123
G1 X87.666 Y56.561 E2.0298
G1 X87.989 Y57.003 E2.0709
G1 X88.097 Y57.214 E2.0886
G1 X88.269 Y57.738 E2.1298
G1 X88.306 Y57.969 E2.1473
G1 X88.328 Y62.244 E2.4673
G1 X110.209 Y62.256 E4.1047
G1 X110.382 Y62.276 E4.1177
G1 X110.705 Y62.353 E4.1426
G1 X110.871 Y62.413 E4.1559
G1 X111.335 Y62.647 E4.1947
G1 X111.526 Y62.786 E4.2124
G1 X111.916 Y63.172 E4.2535
G1 X112.055 Y63.363 E4.2711
G1 X112.306 Y63.851 E4.3122
G1 X112.380 Y64.075 E4.3299
G1 X112.458 Y64.560 E4.3666
G1 X112.468 Y64.680 E4.3756
G1 X112.468 Y66.006 E4.4748
G1 X113.826 Y66.741 E4.5904
G1 X113.876 Y66.771 E4.5947
G1 X115.947 Y68.108 E4.7793
G1 X115.995 Y68.141 E4.7836
G1 X117.532 Y69.311 E4.9281
G1 X126.365 Y69.311 E5.5892
G1 X126.482 Y69.320 E5.5979
G1 X126.961 Y69.396 E5.6342
G1 X127.184 Y69.467 E5.6518
G1 X127.673 Y69.714 E5.6928
G1 X127.865 Y69.852 E5.7104
G1 X128.254 Y70.239 E5.7515
G1 X128.394 Y70.430 E5.7692
G1 X128.644 Y70.918 E5.8103
G1 X128.718 Y71.142 E5.8279
G1 X128.797 Y71.627 E5.8647
G1 X128.806 Y71.747 E5.8737
G1 X128.795 Y118.520 E9.3739
G1 X128.759 Y118.750 E9.3914
G1 X128.617 Y119.193 E9.4262
G1 X128.778 Y119.354 E9.4433
G1 X128.778 Y125.077 E9.8715
G1 X128.027 Y125.828 E9.9510
G1 X128.027 Y129.059 E10.1928
G1 X127.149 Y129.938 E10.2858
G1 X124.882 Y129.938 E10.4555
G1 X124.882 Y131.732 E10.5898
G1 X124.003 Y132.611 E10.6828
G1 X122.131 Y132.611 E10.8228
G1 X122.131 Y133.035 E10.8546
G1 X121.252 Y133.914 E10.9476
G1 X115.847 Y133.914 E11.3520
G1 X115.502 Y134.090 E11.3811
G1 X115.277 Y134.163 E11.3987
G1 X114.793 Y134.241 E11.4354
G1 X114.675 Y134.250 E11.4443
G1 X105.520 Y134.250 E12.1294
G1 X105.403 Y134.241 E12.1382
G1 X104.953 Y134.170 E12.1723
G1 X104.785 Y134.123 E12.1854
G1 X104.477 Y133.997 E12.2103
G1 X104.322 Y133.911 E12.2235
G1 X103.925 Y133.624 E12.2602
G1 X103.795 Y133.505 E12.2734
G1 X103.577 Y133.252 E12.2984
G1 X103.478 Y133.105 E12.3116
G1 X103.254 Y132.669 E12.3483
G1 X103.192 Y132.504 E12.3615
G1 X103.115 Y132.187 E12.3859
G1 X103.094 Y132.026 E12.3980
G1 X103.081 Y131.485 E12.4385
G1 X61.993 Y131.485 E15.5133
G1 X61.114 Y130.607 E15.6063
G1 X61.114 Y65.646 E20.4677
G1 X62.166 Y64.748 E20.5712
G1 X62.526 Y64.805 E20.5985
G1 X62.526 Y62.652 E20.7596
G1 X63.405 Y61.773 E20.8526
G1 X65.872 Y61.773 E21.0372
G1 X70.006 Y66.300 F7200
G92 E0
G1 X70.006 Y66.335 E0.0026 F1500
G1 X70.402 Y66.335 E0.0322
G1 X71.280 Y67.214 E0.1252
G1 X71.280 Y70.750 E0.3898
G1 X75.056 Y70.750 E0.6723
G1 X75.348 Y70.727 E0.6943
G1 X75.577 Y70.672 E0.7119
G1 X75.793 Y70.582 E0.7294
G1 X75.993 Y70.460 E0.7470
G1 X76.172 Y70.307 E0.7646
G1 X76.323 Y70.131 E0.7819
G1 X76.447 Y69.928 E0.7997
G1 X76.537 Y69.712 E0.8172
G1 X76.591 Y69.484 E0.8348
G1 X76.614 Y69.191 E0.8568
G1 X76.614 Y67.603 E0.9756
G1 X73.323 Y67.603 E1.2219
G1 X72.444 Y66.724 E1.3149
G1 X72.444 Y66.300 E1.3467
G1 X70.006 Y66.300 E1.5291
G92 E0
G1 E-2.0000 F1200
G1 X117.114 Y124.980 F7200
G1 E0.0000 F1200
G92 E0
